X: 157
T: Ağlatıp Küstüreceksen
C: Alaattin Şensoy
O: Turkey
F: http://compmusic.upf.edu/node/140
N: hicazkar--sarki--duyek--aglatip_kustureceksen--alaattin_sensoy
N: makam= hicazkar
N: form= sarki
N: usul= duyek = 8/4
M: 8/4
L: 1/16
K: C _1/4B _7/8e _7/8A ^f
Q: 1/4=150
%%MIDI tuningsystem comma53
g2 fg2f g2 fa gf ed e2  | f2 ef2e f2 eg fe dc d2  | 
w:   |   | 
e2 de2d e2 dg fe dc Bc  | dB cA BG AF G2 AB cd ef  | 
w:   |   | 
g2 fg2f g2 fa gf ed e2  | f2 ef2e f2 eg fe dc d2  | 
w:   |   | 
e2 de2d e2 dg fe dc Bc  | dB cA BG AF G2 AB cd ef  | 
w:   |   | 
g2 a4 gf f4 fe f2  | g4 f2 e2 g4 g4  | \
w:   |   | 
z2 f4 a2 a2 g2 g2 f2  | f4 e2 d2 f4 f2 ed  | 
w:   |   | 
d2 d4 e2 f2 g2 f2 e2  | e4 d2 c2 e4 e4  | \
w:   |   | 
f2 e2 d2 c2 Bd ce dc B2  | 
w:   | 
c4 B2 A2 GF GA BA Bc  | d2 d4 e2 f2 g2 f2 e2  | \
w:   |   | 
e4 d2 c2 e4 e4  | 
w:   | 
f2 e2 d2 c2 Bd ce dc B2  | c4 B2 A2 GF GA BA Bc  | 
w:   |   | 
c4 B2 A2 G2 AB cd ef  | g2 fg2f g2 fa gf ed e2  | 
w:   |   | 
f2 ef2e f2 eg fe dc d2  | cd ef gf ed ef ga ba gf  | 
w:   |   | 
g2 c'2 bc' ba ga gf g4  | g4 b4 b2 b2 b4  | \
w:   |   | 
ba b2 a2 c'2 b2 a2 g2 f2  | 
w:   | 
z2 a4 a2 a2 a2 a4  | a2 g2 g2 f2 a4 a4  | \
w:   |   | 
g2 g4 g2 g2 f2 e2 d2  | c2 B2 c2 d2 e4 e4  | 
w:   |   | 
f2 e2 d2 c2 Bd ce dc B2  | c4 B2 A2 G2 AB cd ef  | 
w:   |   | 
g2 g4 g2 g2 f2 e2 d2  | c2 B2 c2 d2 e4 e4  | \
w:   |   | 
f2 e2 d2 c2 Bd ce dc B2  | 
w:   | 
c4 B2 A2 G2 AB cd ef  | g2 fg2f g2 fa gf ed e2  | 
w:   |   | 
f2 ef2e f2 eg fe dc d2  | e2 de2d e2 dg fe dc Bc  | 
w:   |   | 
dB cA BG AF G2 AB cd ef  | g2 fg2f g2 fa gf ed e2  | 
w:   |   | 
f2 ef2e f2 eg fe dc d2  | e2 de2d e2 dg fe dc Bc  | 
w:   |   | 
dB cA BG AF G2 AB cd ef  | g2 a4 gf f4 fe f2  | 
w:   |   | 
g4 f2 e2 g4 g4  | z2 f4 a2 a2 g2 g2 f2  | \
w:   |   | 
f4 e2 d2 f4 f2 ed  | d2 d4 e2 f2 g2 f2 e2  | 
w:   |   | 
e4 d2 c2 e4 e4  | f2 e2 d2 c2 Bd ce dc B2  | \
w:   |   | 
c4 B2 A2 GF GA BA Bc  | 
w:   | 
d2 d4 e2 f2 g2 f2 e2  | e4 d2 c2 e4 e4  | \
w:   |   | 
f2 e2 d2 c2 Bd ce dc B2  | 
w:   | 
c4 B2 A2 GF GA BA Bc  | c4 B2 A2 G2 AB cd ef  | 
w:   |   | 
g2 fg2f g2 fa gf ed e2  | f2 ef2e f2 eg fe dc d2  | 
w:   |   | 
cd ef gf ed ef ga ba gf  | g2 c'2 bc' ba ga gf g4  | 
w:   |   | 
g4 b4 b2 b2 b4  | ba b2 a2 c'2 b2 a2 g2 f2  | \
w:   |   | 
z2 a4 a2 a2 a2 a4  | a2 g2 g2 f2 a4 a4  | 
w:   |   | 
g2 g4 g2 g2 f2 e2 d2  | c2 B2 c2 d2 e4 e4  | \
w:   |   | 
f2 e2 d2 c2 Bd ce dc B2  | 
w:   | 
c4 B2 A2 G2 AB cd ef  | g2 g4 g2 g2 f2 e2 d2  | \
w:   |   | 
c2 B2 c2 d2 e4 e4  | 
w:   | 
f2 e2 d2 c2 Bd ce dc B2  | c4 B2 A2 G2 AB cd ef  | 
w:   |   | 
c4 B2 A2 G4 z4  | g2 a4 gf f4 fe f2  | \
w:   |   | 
g4 f2 e2 g4 g4  | f2 f4 a2 a2 g2 g2 f2  | 
w:   |   | 
f4 e2 d2 f4 f2 ed  | d2 d4 e2 f2 g2 f2 e2  | \
w:   |   | 
e4 d2 c2 d4 d4  | f2 e2 d2 c2 Bd ce dc B2  | 
w:   |   | 
c4 B2 A2 GF GA BA Bc  | d2 d4 e2 f2 g2 f2 e2  | \
w:   |   | 
e4 d2 c2 d4 d4  | 
w:   | 
f2 e2 d2 c2 Bd ce dc B2  | c4 B2 A2 G2 AB cd ef  | 
w:   |   | 
f2 ef2e f2 eg fe dc d2  | cd ef gf ed ef ga ba gf  | 
w:   |   | 
g2 c'2 bc' ba ga gf g4  | g4 b4 b2 b2 b4  | \
w:   |   | 
ba b2 a2 c'2 b2 a2 g2 f2  | 
w:   | 
z2 a4 a2 a2 a2 a4  | a2 g2 g2 f2 a4 a4  | \
w:   |   | 
g2 g4 g2 g2 f2 e2 d2  | c2 B2 c2 d2 e4 e4  | 
w:   |   | 
f2 e2 d2 c2 Bd ce dc B2  | c4 B2 A2 G2 AB cd ef  | 
w:   |   | 
g2 g4 g2 g2 f2 e2 d2  | c2 B2 c2 d2 e4 e4  | \
w:   |   | 
f2 e2 d2 c2 Bd ce dc B2  | 
w:   | 
c4 B2 A2 G2 AB cd ef  | c4 B2 A2 G4 z4  | |


